!!!COM: Palestrina, Giovanni Perluigi da
!!!OPR: Missa Dies sanctificatus
!!!OMD: Agnus II
!!!OTL: First Section
**kern	**kern	**kern	**kern	**kern
*Ibass	*Itenor	*Icalto	*Icalto	*Icant
!Bassus	!Tenor	!Altus 2	!Altus 1	!Cantus
*clefF4	*clefGv2	*clefG2	*clefG2	*clefG2
*k[]	*k[]	*k[]	*k[]	*k[]
*G:mix	*G:mix	*G:mix	*G:mix	*G:mix
*M4/2	*M4/2	*M4/2	*M4/2	*M4/2
=1	=1	=1	=1	=1
0r	0r	0r	1r	1g
.	.	.	1c	[1cc
=2	=2	=2	=2	=2
0r	0r	0r	1g	2cc]
.	.	.	.	2b
.	.	.	2e	2.ee
.	.	.	[2a	.
.	.	.	.	4dd
=3	=3	=3	=3	=3
0r	0r	0r	2a]	2cc
.	.	.	2g	2b
.	.	.	2f	2a
.	.	.	2e	[2cc
=4	=4	=4	=4	=4
1r	1G	0r	2d	2cc]
.	.	.	1g	2b
1C	[1c	.	.	1ee
.	.	.	2g	.
=5	=5	=5	=5	=5
1G	2c]	0r	1.g	1dd
.	2B	.	.	.
2E	2.e	.	.	2r
[2A	.	.	2e	2cc
.	4d	.	.	.
=6	=6	=6	=6	=6
2A]	2c	0r	2f#	2a
2G	2B	.	2g	2b
[1F	2.A	.	2.a	2.cc
.	4G	.	4b	4b
=7	=7	=7	=7	=7
2F]	4A	1c	1cc	2a
.	4B	.	.	.
2E	1c	.	.	2g
1D	.	[1f	2r	2a
.	2B	.	4f	2b
.	.	.	4g	.
=8	=8	=8	=8	=8
1C	2A	2f]	4a	1cc
.	.	.	4b	.
.	2G	2e	2.cc	.
2r	1F	2.a	.	2r
.	.	.	4b	.
2F	.	.	[2a	4f
.	.	4g	.	4g
=9	=9	=9	=9	=9
2D	0r	2f	2a]	4a
.	.	.	.	4b
2E	.	2e	2g	1cc
2F	.	2.d	2a	.
2G	.	.	2g	2b
.	.	4c	.	.
=10	=10	=10	=10	=10
2.D	2r	4d	2f	2.a
.	.	4e	.	.
.	1d	1f	2d	.
4E	.	.	.	4g
4F	.	.	1a	4a
4G	.	.	.	4b
2A	2c	2e	.	2cc
=11	=11	=11	=11	=11
1D	1f	2d	0r	2b
.	.	2c	.	1a
1E	2.e	1B	.	.
.	.	.	.	2g#
.	4d	.	.	.
=12	=12	=12	=12	=12
2F	2c	0r	2r	2a
2G	2B	.	2d	1g
1D	1A	.	[1d	.
.	.	.	.	2f
=13	=13	=13	=13	=13
1d	1G	2r	2d]	1b-
.	.	1g	2G	.
1d	1r	.	2r	1a
.	.	2f	2d	.
=14	=14	=14	=14	=14
1G	0r	1b-	4d	1g
.	.	.	4c	.
.	.	.	4d	.
.	.	.	4e	.
1A	.	2.a	2f	1r
.	.	.	2e	.
.	.	4g	.	.
=15	=15	=15	=15	=15
2B-	0r	2f	2d	1r
2c	.	2e	1c	.
1G	.	1d	.	1gg
.	.	.	2B	.
=16	=16	=16	=16	=16
2C	1g	1c	1.e	1gg
2c	.	.	.	.
2c	1g	1r	.	2cc
2B	.	.	2d	2dd
=17	=17	=17	=17	=17
1A	1c	0r	2r	2ee
.	.	.	2e	1cc
2.G	1d	.	1g	.
.	.	.	.	[2b
4F	.	.	.	.
=18	=18	=18	=18	=18
2E	2e	0r	2g	4b]
.	.	.	.	4cc
2F	1c	.	4f	2a
.	.	.	4e	.
1G	.	.	2d	2g
.	2B	.	[2g	2dd
=19	=19	=19	=19	=19
1r	1A	1cc	2g]	2ee
.	.	.	2f#	2cc
1C	1G	1cc	1g	4ee
.	.	.	.	4dd
.	.	.	.	4cc
.	.	.	.	4b
=20	=20	=20	=20	=20
1D	0r	1f	1r	4a
.	.	.	.	4g
.	.	.	.	1f
1C	.	1g	1cc	.
.	.	.	.	2e
=21	=21	=21	=21	=21
1F	0r	2a	1cc	2f
.	.	1f	.	1a
2D	.	.	2f	.
2E	.	2e	2g	[2cc
=22	=22	=22	=22	=22
2F	0r	1d	2a	2cc]
2G	.	.	4g	2b
.	.	.	4f	.
2.A	.	1c	4e	1a
.	.	.	4c	.
.	.	.	[2cc	.
4G	.	.	.	.
=23	=23	=23	=23	=23
2F	1d	0r	2cc]	2a
1G	.	.	2b	4g
.	.	.	.	4a
.	1d	.	2g	4b
.	.	.	.	4cc
2F	.	.	[2a	[2dd
=24	=24	=24	=24	=24
1E	1G	0r	4a]	2dd]
.	.	.	4g	.
.	.	.	1g	2cc#
1D	1A	.	.	2dd
.	.	.	2f	2dd
=25	=25	=25	=25	=25
0r	2B	0r	2d	2dd
.	2c	.	2e	2g
.	1A	.	2f	2a
.	.	.	[2e	[2cc
=26	=26	=26	=26	=26
2r	2.G	1g	2e]	4cc]
.	.	.	.	8b
.	.	.	.	8a
2G	.	.	2d	4b
.	4A	.	.	4cc
2G	2B	1g	2r	2dd
[2C	2c	.	2c	2ee
=27	=27	=27	=27	=27
2C]	1A	1c	2e	1cc
1c	.	.	2f#	.
.	1G	1d	[1g	2.gg
2B	.	.	.	.
.	.	.	.	4ff
=28	=28	=28	=28	=28
4c	0r	2e	2g]	4ee
4B	.	.	.	4dd
4A	.	2f	2a	2.cc
4G	.	.	.	.
2F	.	1d	2r	.
.	.	.	.	8b
.	.	.	.	8a
2G	.	.	2g	2b
=29	=29	=29	=29	=29
2C	0r	2.c	1g	2.e
2c	.	.	.	.
.	.	4d	.	4f
2c	.	2e	2c	2g
2F	.	2f	2cc	2a
=30	=30	=30	=30	=30
1G	0r	1d	2cc	1g
.	.	.	2b	.
1A	.	1c	2cc	1e
.	.	.	2c	.
*-	*-	*-	*-	*-
!!!CDT: 1525/^1526/-1594/2/2
!!!OCY: Italia
!!!AGN: Mass (Parody)
!!!AST: renaissance, vocal
!!!ASW: Motet 1563 (Palestrina)
!!!PWK: Masses, Book 6
!!!RNB: Cadence finals: D,A,C
!!!YOR: Le Opere Complete, v. 21, p. 1
!!!YOO: Rome, Italy: Fratelli Scalera
!!!END: 1992//
!!!EED: John Miller
!!!YEC: Copyright 2000, John Miller
!!!YEN: United States of America
!!!YEM: Rights to all derivative electronic formats reserved.
!!!YEM: Refer to licensing agreement for further details.
!!!YEM: This file must be accompanied by the licensing agreement.
!!!YEM: A copy of the licensing agreement may be found at http://www.music-cog.ohio-state.edu/HumdrumDatabases/Palestrina/license.txt
!!!EMD: converted to Humdrum by Bret Aarden
